X:55
T:If I Only Had a Brain
C:Harold Arlen and E.Y. Harburg
R:Schottische
M:4/4
L:1/8
K:G
"G"d>B G>A "Em"BG2A|"Am"B>G E>F "Am/D"GE2E|"Bm"D>E D>E"Em"(D4|"Bm"D2)z2z2 "Bbm"G>F|
"Am"E2e>d c>B A>G|"D7"F2 f>e d>c B>A|"G"G>F G>A (G4|"Eb7"G6) "D7"G>A:|
|:"C"e4 "F#"e>^d e>f|"Bm"d6 "E7"d2|"Am"c2c2 "D7"c2d2|"G"B6 "Em"c>B|
"F#"A>^G A>^G "B7"A>^G A>B|"Em"(=G4 G>)A B>d|"A7"e2z2z^c/ B>A|"D"d6 B>c|
"G"d>B G>A "Em"BG2A|"Am"B>G E>F "Am/D"GE2E|"Bm"D>E D>(E"Em"D4|"Bm"D2)z2z2 "Bbm"G>F|
"Am"E2e>d c>B A>G|"D7"F2 f>e d>c B>A|"G"G>F G>A (G4|"Am"G6) "D7"G>A|]
